X: 5
T:Over the Hills and Far Away (#55)
M:4/4
L:1/8
S:Capt. F. O'Neill
R:March
K:D
AB|d3 e defe|d2 B2 B2 AB|d3 e defd|f2 e2 e2 AB|
d3 e defe|d2 B2 B2 d2|ABAG ABde|f2 e2 e2||
fg|a3 b afef|d2 B2 B2 fg|a3 g f2 ed|f2 e2 e2 fg|
a3 b afef|d2 B2 g3 B|A2 AB ABde|f2 e2 e2||
%
% "Gay Robin was a piper young,
%  and many an air he played and sung
%  But sweetest far the love fraught lay
%  'Over the hills and far away'"

